X: 1
T: Mairi Bhan Og
M: 3/4
L: 1/8
R: waltz
K: Bmin
de | f4 B2 | B3 G B2 | c4 B2 | B3 c d2 | e3 f e2 | c3 B c2 | A6 | A4 c2 |
B3 G B2 | d4 e2 | f3 d f2 | f4 e2 |d4 f2 | f a3 f2 | e6- | e2 d2 e2 |
f3 d f2 |e4 d2 | B d3 B2 | B2 c2 d2 | e3 f e2 | c3 B c2 | A6 | d4 c2 |
B3 G B2 | d4 e2 | f3 e d2 | f a3 g2 | f3 e d2 | e3 d c2 | B6- | B4 ||
